X:14504
%3269
T:Common. BC.01
M:3/2
L:1/2
S:Benjamin Cooke MS.circa 1770, F.Kidson Coll.
R:Misc.
O:England
A:x
N:This is clearly not a dance tune -but what is it?JB
N:no clef, key signature or time signature is given.
Z:John Bagnall
K:C
F | B2 c | (d c) B | ( c B) A | B2 F | (G A) B | F e d | d c 
%Error : Bar 7 is 1/1 not 3/2
|]

%Error : Malformed note : expecting a-g or A-G
| B2 c | (d c) B | ( c B) A | B2 F | (G A) B | F e d | d c 
%Error : Bar 15 is 1/1 not 3/2
|]


